X: 2309
T: Baddeck Gathering, The
R: jig
M: 6/8
K: Dmajor
|:F|D2 D FEF|D3 D2 A|D2 D FD/E/F|A3 ABc|
dBd =cAc|1 BGB A2 B|AF/G/A dAF|EFE E2:|
[2 BGB A2 G|FED AFE|D3 D2||
g|fga dcd|dfa afd|efg =cGc|efg =c2 g|
fga d2 g|fga a2 d|efg ABc|d3 d2:|
fga ABc|dcd A2 G|FED AFE|D3 D2||

